outline/svg/settings_ethernet.svg

<svg xmlns="http://www.w3.org/2000/svg" width="24" height="24"><path fill="none" d="M0 0h24v24H0V0z"/><path d="M7.77 6.76L6.23 5.48.82 12l5.41 6.52 1.54-1.28L3.42 12l4.35-5.24zM7 13h2v-2H7v2zm10-2h-2v2h2v-2zm-6 2h2v-2h-2v2zm6.77-7.52l-1.54 1.28L20.58 12l-4.35 5.24 1.54 1.28L23.18 12l-5.41-6.52z" fill="currentColor"/></svg>

<?xml version="1.0" encoding="utf-8"?>
<!-- Generator: Adobe Illustrator 19.1.0, SVG Export Plug-In . SVG Version: 6.00 Build 0)  -->
<svg version="1.1" xmlns="http://www.w3.org/2000/svg" xmlns:xlink="http://www.w3.org/1999/xlink" x="0px" y="0px" width="24px"
	 height="24px" viewBox="0 0 24 24" enable-background="new 0 0 24 24" xml:space="preserve">
<g id="Bounding_Boxes">
	<g id="ui_x5F_spec_x5F_header_copy_3" display="none">
	</g>
	<path fill="none" d="M0,0h24v24H0V0z"/>
</g>
<g id="Rounded" display="none">
	<g id="ui_x5F_spec_x5F_header_copy_5">
	</g>
	<path display="inline" d="M7,6.12L7,6.12c-0.43-0.35-1.06-0.3-1.41,0.13l-4.24,5.11c-0.31,0.37-0.31,0.91,0,1.28l4.24,5.11
		c0.35,0.43,0.98,0.48,1.41,0.13h0c0.43-0.35,0.48-0.98,0.13-1.41L3.42,12l3.71-4.47C7.48,7.1,7.43,6.47,7,6.12z M7,13h2v-2H7V13z
		 M17,11h-2v2h2V11z M11,13h2v-2h-2V13z M17,6.12L17,6.12c-0.43,0.35-0.48,0.98-0.13,1.41L20.58,12l-3.71,4.47
		c-0.35,0.43-0.29,1.06,0.13,1.41l0,0c0.43,0.35,1.06,0.3,1.41-0.13l4.24-5.11c0.31-0.37,0.31-0.91,0-1.28l-4.24-5.11
		C18.06,5.83,17.42,5.77,17,6.12z"/>
</g>
<g id="Sharp" display="none">
	<g id="ui_x5F_spec_x5F_header_copy_4">
	</g>
	<path display="inline" d="M7.77,6.76L6.23,5.48L0.82,12l5.41,6.52l1.54-1.28L3.42,12L7.77,6.76z M7,13h2v-2H7V13z M17,11h-2v2h2V11
		z M11,13h2v-2h-2V13z M17.77,5.48l-1.54,1.28L20.58,12l-4.35,5.24l1.54,1.28L23.18,12L17.77,5.48z"/>
</g>
<g id="Outline" fill="currentColor">
	<g id="ui_x5F_spec_x5F_header" display="none">
	</g>
	<path d="M7.77,6.76L6.23,5.48L0.82,12l5.41,6.52l1.54-1.28L3.42,12L7.77,6.76z M7,13h2v-2H7V13z M17,11h-2v2h2V11z M11,13h2v-2h-2
		V13z M17.77,5.48l-1.54,1.28L20.58,12l-4.35,5.24l1.54,1.28L23.18,12L17.77,5.48z"/>
</g>
<g id="Duotone" display="none">
	<g id="ui_x5F_spec_x5F_header_copy_2">
	</g>
	<path display="inline" d="M7.77,6.76L6.23,5.48L0.82,12l5.41,6.52l1.54-1.28L3.42,12L7.77,6.76z M7,13h2v-2H7V13z M17,11h-2v2h2V11
		z M11,13h2v-2h-2V13z M17.77,5.48l-1.54,1.28L20.58,12l-4.35,5.24l1.54,1.28L23.18,12L17.77,5.48z"/>
</g>
<g id="Material" display="none">
	<g id="ui_x5F_spec_x5F_header_copy">
	</g>
	<path display="inline" d="M7.77,6.76L6.23,5.48L0.82,12l5.41,6.52l1.54-1.28L3.42,12L7.77,6.76z M7,13h2v-2H7V13z M17,11h-2v2h2V11
		z M11,13h2v-2h-2V13z M17.77,5.48l-1.54,1.28L20.58,12l-4.35,5.24l1.54,1.28L23.18,12L17.77,5.48z"/>
</g>
</svg>
